software/firmware-buildroot/overlay/usr/share/libcamera/ipa/rpi/vc4/imx708.json
{
    "version": 2.0,
    "target": "bcm2835",
    "algorithms": [
        {
            "rpi.black_level": {
                "black_level": 4096
            }
        },
        {
            "rpi.dpc": {}
        },
        {
            "rpi.lux": {
                "reference_shutter_speed": 10672,
                "reference_gain": 1.12,
                "reference_aperture": 1.0,
                "reference_lux": 977,
                "reference_Y": 8627
            }
        },
        {
            "rpi.noise": {
                "reference_constant": 16.0,
                "reference_slope": 4.0
            }
        },
        {
            "rpi.geq": {
                "offset": 215,
                "slope": 0.00287
            }
        },
        {
            "rpi.sdn": {}
        },
        {
            "rpi.awb": {
                "priors": [
                    {
                        "lux": 0,
                        "prior": [
                            2000,
                            1.0,
                            3000,
                            0.0,
                            13000,
                            0.0
                        ]
                    },
                    {
                        "lux": 800,
                        "prior": [
                            2000,
                            0.0,
                            6000,
                            2.0,
                            13000,
                            2.0
                        ]
                    },
                    {
                        "lux": 1500,
                        "prior": [
                            2000,
                            0.0,
                            4000,
                            1.0,
                            6000,
                            6.0,
                            6500,
                            7.0,
                            7000,
                            1.0,
                            13000,
                            1.0
                        ]
                    }
                ],
                "modes": {
                    "auto": {
                        "lo": 2500,
                        "hi": 8000
                    },
                    "incandescent": {
                        "lo": 2500,
                        "hi": 3000
                    },
                    "tungsten": {
                        "lo": 3000,
                        "hi": 3500
                    },
                    "fluorescent": {
                        "lo": 4000,
                        "hi": 4700
                    },
                    "indoor": {
                        "lo": 3000,
                        "hi": 5000
                    },
                    "daylight": {
                        "lo": 5500,
                        "hi": 6500
                    },
                    "cloudy": {
                        "lo": 7000,
                        "hi": 8600
                    }
                },
                "bayes": 1,
                "ct_curve": [
                    2498.0,
                    0.8733,
                    0.2606,
                    2821.0,
                    0.7707,
                    0.3245,
                    2925.0,
                    0.7338,
                    0.3499,
                    2926.0,
                    0.7193,
                    0.3603,
                    2951.0,
                    0.7144,
                    0.3639,
                    2954.0,
                    0.7111,
                    0.3663,
                    3578.0,
                    0.6038,
                    0.4516,
                    3717.0,
                    0.5861,
                    0.4669,
                    3784.0,
                    0.5786,
                    0.4737,
                    4485.0,
                    0.5113,
                    0.5368,
                    4615.0,
                    0.4994,
                    0.5486,
                    4671.0,
                    0.4927,
                    0.5554,
                    5753.0,
                    0.4274,
                    0.6246,
                    5773.0,
                    0.4265,
                    0.6256,
                    7433.0,
                    0.3723,
                    0.6881
                ],
                "sensitivity_r": 1.05,
                "sensitivity_b": 1.05,
                "transverse_pos": 0.03148,
                "transverse_neg": 0.03061
            }
        },
        {
            "rpi.agc": {
                "channels": [
                    {
                        "metering_modes": {
                            "centre-weighted": {
                                "weights": [
                                    3,
                                    3,
                                    3,
                                    2,
                                    2,
                                    2,
                                    2,
                                    1,
                                    1,
                                    1,
                                    1,
                                    0,
                                    0,
                                    0,
                                    0
                                ]
                            },
                            "spot": {
                                "weights": [
                                    2,
                                    1,
                                    1,
                                    0,
                                    0,
                                    0,
                                    0,
                                    0,
                                    0,
                                    0,
                                    0,
                                    0,
                                    0,
                                    0,
                                    0
                                ]
                            },
                            "matrix": {
                                "weights": [
                                    1,
                                    1,
                                    1,
                                    1,
                                    1,
                                    1,
                                    1,
                                    1,
                                    1,
                                    1,
                                    1,
                                    1,
                                    1,
                                    1,
                                    1
                                ]
                            }
                        },
                        "exposure_modes": {
                            "normal": {
                                "shutter": [
                                    100,
                                    15000,
                                    30000,
                                    60000,
                                    120000
                                ],
                                "gain": [
                                    1.0,
                                    1.0,
                                    2.0,
                                    4.0,
                                    12.5
                                ]
                            },
                            "short": {
                                "shutter": [
                                    100,
                                    5000,
                                    10000,
                                    20000,
                                    120000
                                ],
                                "gain": [
                                    1.0,
                                    2.0,
                                    4.0,
                                    6.0,
                                    6.0
                                ]
                            },
                            "long": {
                                "shutter": [
                                    1000,
                                    30000,
                                    60000,
                                    90000,
                                    120000
                                ],
                                "gain": [
                                    1.0,
                                    2.0,
                                    4.0,
                                    6.0,
                                    12.0
                                ]
                            }
                        },
                        "constraint_modes": {
                            "normal": [
                                {
                                    "bound": "LOWER",
                                    "q_lo": 0.98,
                                    "q_hi": 1.0,
                                    "y_target": [
                                        0,
                                        0.2,
                                        1000,
                                        0.2
                                    ]
                                }
                            ],
                            "highlight": [
                                {
                                    "bound": "LOWER",
                                    "q_lo": 0.98,
                                    "q_hi": 1.0,
                                    "y_target": [
                                        0,
                                        0.2,
                                        1000,
                                        0.2
                                    ]
                                },
                                {
                                    "bound": "UPPER",
                                    "q_lo": 0.98,
                                    "q_hi": 1.0,
                                    "y_target": [
                                        0,
                                        0.8,
                                        1000,
                                        0.8
                                    ]
                                }
                            ]
                        },
                        "y_target": [
                            0,
                            0.16,
                            1000,
                            0.165,
                            10000,
                            0.17
                        ],
                        "startup_frames": 5,
                        "convergence_frames": 6,
                        "speed": 0.15
                    },
                    {
                        "base_ev": 0.125,
                        "metering_modes": {
                            "centre-weighted": {
                                "weights": [
                                    3,
                                    3,
                                    3,
                                    2,
                                    2,
                                    2,
                                    2,
                                    1,
                                    1,
                                    1,
                                    1,
                                    0,
                                    0,
                                    0,
                                    0
                                ]
                            },
                            "spot": {
                                "weights": [
                                    2,
                                    1,
                                    1,
                                    0,
                                    0,
                                    0,
                                    0,
                                    0,
                                    0,
                                    0,
                                    0,
                                    0,
                                    0,
                                    0,
                                    0
                                ]
                            },
                            "matrix": {
                                "weights": [
                                    1,
                                    1,
                                    1,
                                    1,
                                    1,
                                    1,
                                    1,
                                    1,
                                    1,
                                    1,
                                    1,
                                    1,
                                    1,
                                    1,
                                    1
                                ]
                            }
                        },
                        "exposure_modes": {
                            "normal": {
                                "shutter": [
                                    100,
                                    15000,
                                    30000,
                                    60000,
                                    120000
                                ],
                                "gain": [
                                    1.0,
                                    1.0,
                                    2.0,
                                    4.0,
                                    12.5
                                ]
                            },
                            "short": {
                                "shutter": [
                                    100,
                                    5000,
                                    10000,
                                    20000,
                                    120000
                                ],
                                "gain": [
                                    1.0,
                                    2.0,
                                    4.0,
                                    6.0,
                                    6.0
                                ]
                            },
                            "long": {
                                "shutter": [
                                    1000,
                                    30000,
                                    60000,
                                    90000,
                                    120000
                                ],
                                "gain": [
                                    1.0,
                                    2.0,
                                    4.0,
                                    6.0,
                                    12.0
                                ]
                            }
                        },
                        "constraint_modes": {
                            "normal": [
                                {
                                    "bound": "LOWER",
                                    "q_lo": 0.98,
                                    "q_hi": 1.0,
                                    "y_target": [
                                        0,
                                        0.2,
                                        1000,
                                        0.2
                                    ]
                                }
                            ],
                            "highlight": [
                                {
                                    "bound": "LOWER",
                                    "q_lo": 0.98,
                                    "q_hi": 1.0,
                                    "y_target": [
                                        0,
                                        0.2,
                                        1000,
                                        0.2
                                    ]
                                },
                                {
                                    "bound": "UPPER",
                                    "q_lo": 0.98,
                                    "q_hi": 1.0,
                                    "y_target": [
                                        0,
                                        0.8,
                                        1000,
                                        0.8
                                    ]
                                }
                            ]
                        },
                        "y_target": [
                            0,
                            0.16,
                            1000,
                            0.165,
                            10000,
                            0.17
                        ],
                        "startup_frames": 5,
                        "convergence_frames": 6,
                        "speed": 0.15
                    },
                    {
                        "base_ev": 1.5,
                        "metering_modes": {
                            "centre-weighted": {
                                "weights": [
                                    3,
                                    3,
                                    3,
                                    2,
                                    2,
                                    2,
                                    2,
                                    1,
                                    1,
                                    1,
                                    1,
                                    0,
                                    0,
                                    0,
                                    0
                                ]
                            },
                            "spot": {
                                "weights": [
                                    2,
                                    1,
                                    1,
                                    0,
                                    0,
                                    0,
                                    0,
                                    0,
                                    0,
                                    0,
                                    0,
                                    0,
                                    0,
                                    0,
                                    0
                                ]
                            },
                            "matrix": {
                                "weights": [
                                    1,
                                    1,
                                    1,
                                    1,
                                    1,
                                    1,
                                    1,
                                    1,
                                    1,
                                    1,
                                    1,
                                    1,
                                    1,
                                    1,
                                    1
                                ]
                            }
                        },
                        "exposure_modes": {
                            "normal": {
                                "shutter": [
                                    100,
                                    15000,
                                    30000,
                                    60000,
                                    120000
                                ],
                                "gain": [
                                    1.0,
                                    1.0,
                                    2.0,
                                    4.0,
                                    12.5
                                ]
                            },
                            "short": {
                                "shutter": [
                                    100,
                                    5000,
                                    10000,
                                    20000,
                                    120000
                                ],
                                "gain": [
                                    1.0,
                                    2.0,
                                    4.0,
                                    6.0,
                                    6.0
                                ]
                            },
                            "long": {
                                "shutter": [
                                    1000,
                                    30000,
                                    60000,
                                    90000,
                                    120000
                                ],
                                "gain": [
                                    1.0,
                                    2.0,
                                    4.0,
                                    6.0,
                                    12.0
                                ]
                            }
                        },
                        "constraint_modes": {
                            "normal": [
                                {
                                    "bound": "LOWER",
                                    "q_lo": 0.98,
                                    "q_hi": 1.0,
                                    "y_target": [
                                        0,
                                        0.2,
                                        1000,
                                        0.2
                                    ]
                                }
                            ],
                            "highlight": [
                                {
                                    "bound": "LOWER",
                                    "q_lo": 0.98,
                                    "q_hi": 1.0,
                                    "y_target": [
                                        0,
                                        0.2,
                                        1000,
                                        0.2
                                    ]
                                },
                                {
                                    "bound": "UPPER",
                                    "q_lo": 0.98,
                                    "q_hi": 1.0,
                                    "y_target": [
                                        0,
                                        0.8,
                                        1000,
                                        0.8
                                    ]
                                }
                            ]
                        },
                        "y_target": [
                            0,
                            0.16,
                            1000,
                            0.165,
                            10000,
                            0.17
                        ],
                        "startup_frames": 5,
                        "convergence_frames": 6,
                        "speed": 0.15
                    }
                ]
            }
        },
        {
